X:1
T:WIR LIEBEN SEHR IM HERZEN
T:- Ciò che più amiamo -
T:Daniel FRIDERICI (1584 - 1638)
T:Testo italiano: Federico KORB
%%score 1 2 3 4
L:1/8
M:2/4
K:G
V:1 treble nm="Soprano" snm="S."
V:2 treble nm="Alto" snm="A."
V:3 treble-8 nm="Tenor" snm="T."
V:4 bass nm="Bass" snm="B."
V:1
 B4 | A3 B | c2 B2 | A4 | A2 A2 | B3 A | B2 ^c2 | d4 | d2 d2 | e2 d2 | c2 B2 | A2 B2 | (c2 BA | %13
w: 1.~Al|no- stro|cor son|gra-|te al|no- stro|cor son|gra-|te tre|co- se|bel- le|o- gnor|tre co \-|
w: 2.~Dis-|sol- von|la me-|sti-|zia dis-|sol- von|la me-|sti-|zia se~in-|sie- me|lo- ro|stan se~in-|sie \- \-|
 B2) B2 | (AG (G2 | G2)) F2 | G4 | z2 B2 | A3 A | A2 B2 | A4 | z2 B2 | c3 c | c2 B2 | c4 | z2 G2 | %26
w: \- se|be \- le|\- o-|gnor|la|mu- si-|cal bel-|tà|un|ge sto|d'a- mi-|stà|del|
w: \- me|lo \- \-|\- ro|stan.||||||||||
 B3 A | B2 d2 | c2 B2 | A2 G2 | B3 A | B2 d2 | c2 B2 | A2 B2 | A2 G2 | G2 F2 | G2 D2 | GF GA | %38
w: buo- no|nuo- vo|fre- sco|vin sì|son tre|co- se|bel- le\-o-|gnor che|gio- ia|dan- no\-al|cor che|gio \- \- \-|
w: ||||||||||||
 BA Bc | d3 B | A2 G2 | G2 F2 | G4 :| %43
w: \- \- \- \-|\- che|gio- ia|dan- no\-al|cor.|
w: |||||
V:2
 G4 | F3 G | G2 G2 | F4 | F2 F2 | G3 A | G2 G2 | F4 | F2 G2 | G2 G2 | G2 G2 | F2 G2 | (G4 | %13
w: 1.~Al|no- stro|cor son|gra-|te al|no- stro|cor son|gra-|te tre|co- se|bel- le|o- gnor|tre|
w: 2.~Dis-|sol- von|la me-|sti-|zia dis-|sol- von-|la me-|sti-|zia se~in-|sie- me|lo- ro|stan se~in-|sie|
 G2) G2 | E4 | D4 | D4 | z2 G2 | F3 F | F2 G2 | F4 | z2 G2 | G3 G | G2 G2 | G4 | z2 D2 | G3 A | %27
w: co- se|bel-|le\-o-|gnor|la|mu- si-|cal bel-|tà|un|ge- sto|d'a- mi-|stà|del|buo- no|
w: \- me|lo-|ro|stan.|||||||||||
 G2 A2 | A2 G2 | F2 D2 | G3 A | G2 A2 | A2 G2 | F2 G2 | E2 D2 | E2 D2 | D2 B,2 | D4 | D2 D2 | %39
w: nuo- vo|fre- sco|vin sì|son tre|co- se|bel- le\-o-|gnor che|gio- ia|dan- no\-al|cor che|gio|\- \-|
w: ||||||||||||
 G,A, B,G | E2 D2 | E2 D2 | D4 :| %43
w: \- \- \- \-|\- ia|dan- no\-al|cor.|
w: ||||
V:3
 d4 | d3 d | e2 d2 | d4 | d2 d2 | d3 d | d2 e2 | A4 | A2 B2 | c2 d2 | e2 d2 | d2 d2 | e4 | d4 | %14
w: 1.~Al|no- stro|cor son|gra-|te al|no- stro|cor son|gra-|te tre|co- se|bel- le|o- gnor|tre|co-|
w: 2.~Dis-|sol- von|la me-|sti-|zia dis-|sol- von|la me-|sti-|zia se~in-|sie- me|lo- ro|stan se~in-|sie|me|
 c3 B | A2 A2 | B4 | z2 d2 | d3 d | d2 d2 | d4 | z2 d2 | e3 e | e2 d2 | e4 | z2 B2 | d3 d | %27
w: se bel-|le o-|gnor|la|mu- si-|cal bel-|tà|un|ge- sto|d'a- mi-|stà|del|buo- no|
w: lo \-|\- ro|stan.|||||||||||
 d2 =f2 | =f2 d2 | d2 B2 | d3 d | d2 =f2 | =f2 d2 | d2 d2 | c2 B2 | A2 A2 | G4 | z2 D2 | GF GA | %39
w: nuo- vo|fre- sco|vin sì|son tre|co- se|bel- le\-o-|gnor che|gio- ia|dan- no\-al|cor|che|gio \- \- \-|
w: ||||||||||||
 B2 d2 | c2 B2 | A2 A2 | B4 :| %43
w: \- \-|\- ia|dan- no\-al|cor.|
w: ||||
V:4
 G,4 | D,3 G, | C,2 G,,2 | D,4 | D,2 D,2 | G,3 F, | G,2 E,2 | D,4 | D,2 G,2 | C,2 B,,2 | C,2 G,,2 | %11
w: 1.Al|no- stro|cor son|gra-|te al|no- stro|cor son|gra-|te tre|co- se|bel- le\-o-|
w: 2.~Dis-|sol- von|la me-|sti-|zia dis-|sol- von|la me-|sti-|zia se~in-|sie- me|lo- ro|
 D,2 G,2 | C,D, E,F, | G,2 G,,2 | C,4 | D,4 | G,,4 | z2 G,,2 | D,3 D, | D,2 G,,2 | D,4 | z2 G,2 | %22
w: gnor tre|co \- \- \-|\- se|bel-|le\-o-|gnor|la|mu- si-|cal bel-|tà|un|
w: stan se~in-|sie \- \- \-|\- me|lo-|ro|stan.||||||
 C,3 C, | C,2 G,,2 | C,4 | z2 G,2 | G,3 F, | G,2 D,2 | =F,2 G,2 | D,2 G,2 | G,3 F, | G,2 D,2 | %32
w: ge- sto|d'a- mi-|stà|del|buo- no|nuo- vo|fre- sco|vin sì|son tre|co- se|
w: ||||||||||
 =F,2 G,2 | D,2 G,,2 | A,,2 B,,2 | C,2 D,2 | G,,4 | G,,4 | z4 | G,,4 | A,,2 B,,2 | C,2 D,2 | %42
w: bel- le\-o-|gnor che|gio- ia|dan- no\-al|cor|\-||che|gio ia|dan- no\-al|
w: ||||||||||
 G,,4 :| %43
w: cor.|
w: |

